images/CHAI.svg

<svg height="250" viewBox="0 0 250 250" width="250" xmlns="http://www.w3.org/2000/svg"><path d="m43.382812 216.175781v-4.410156h-17.648437v-8.824219h52.941406v-8.824218h-17.644531v-8.824219h-8.824219v-12.5h-29.414062v-2.574219c0-2.351562-.144531-2.570312-2.203125-2.570312h-2.207032v-52.941407h8.085938v-5.148437h25.738281v-6.25c0-3.675782-.296875-6.25-.738281-6.25-.4375 0-.734375-1.984375-.734375-4.410156v-4.414063h144.855469v4.414063c0 3.453124-.222656 4.410156-1.105469 4.410156-.953125 0-1.101563 4.925781-1.101563 39.707031v39.703125h-8.824218v8.824219h-8.824219v8.824219h-8.824219v8.824218h50.738282v8.824219h-17.648438v8.824219h-156.617188zm8.824219-75v-22.058593h-25.738281v44.117187h25.738281zm0 0" fill="#a52639"/><path d="m96.324219 207.351562v-4.410156h121.324219v8.824219h-121.324219zm0 0" fill="#dd3745"/><path d="m113.96875 189.707031v-4.414062h-8.820312v-8.824219h-8.824219v-79.410156h-45.589844v-8.824219h144.855469v4.414063c0 3.453124-.222656 4.410156-1.105469 4.410156-.953125 0-1.101563 4.925781-1.101563 39.707031v39.703125h-8.824218v8.824219h-8.824219v8.824219h-61.765625zm0 0" fill="#dd3745"/><path d="m185.292969 207.351562v-4.410156h8.824219v8.824219h-8.824219zm0 0" fill="#854cbf"/><path d="m138.96875 172.058594v-13.234375h8.824219v-61.765625h-97.058594v-8.824219h144.855469v8.824219h-38.972656v61.765625h8.824218v26.46875h-26.472656zm0 0" fill="#854cbf"/><path d="m174.265625 134.925781v-18.015625h8.824219v36.03125h-8.824219zm0 0" fill="#854cbf"/><path d="m185.292969 207.351562v-4.410156h8.824219v8.824219h-8.824219zm0 0" fill="#ffaa6e"/><path d="m174.265625 134.925781v-18.015625h8.824219v36.03125h-8.824219zm0 0" fill="#ffaa6e"/><path d="m147.792969 123.53125v-26.472656h-97.058594v-8.824219h144.855469v8.824219h-38.972656v52.941406h-8.824219zm0 0" fill="#ffaa6e"/><g fill="#ffe091"><path d="m185.292969 207.351562v-4.410156h8.824219v8.824219h-8.824219zm0 0"/><path d="m174.265625 134.925781v-18.015625h8.824219v36.03125h-8.824219zm0 0"/><path d="m50.734375 92.648438v-4.414063h97.058594v8.824219h-97.058594zm0 0"/><path d="m156.617188 92.648438v-4.414063h38.972656v8.824219h-38.972656zm0 0"/></g><path d="m50.734375 92.648438v-4.414063h97.058594v8.824219h-97.058594zm0 0" fill="#cce2e1"/><path d="m156.617188 92.648438v-4.414063h38.972656v8.824219h-38.972656zm0 0" fill="#cce2e1"/></svg>

<svg xmlns="http://www.w3.org/2000/svg" xmlns:xlink="http://www.w3.org/1999/xlink" width="250px" height="250px" viewBox="0 0 250 250" version="1.1">
<g id="surface1">
<path style=" stroke:none;fill-rule:nonzero;fill:rgb(64.705884%,14.901961%,22.352941%);fill-opacity:1;" d="M 43.382812 216.175781 L 43.382812 211.765625 L 25.734375 211.765625 L 25.734375 202.941406 L 78.675781 202.941406 L 78.675781 194.117188 L 61.03125 194.117188 L 61.03125 185.292969 L 52.207031 185.292969 L 52.207031 172.792969 L 22.792969 172.792969 L 22.792969 170.21875 C 22.792969 167.867188 22.648438 167.648438 20.589844 167.648438 L 18.382812 167.648438 L 18.382812 114.707031 L 26.46875 114.707031 L 26.46875 109.558594 L 52.207031 109.558594 L 52.207031 103.308594 C 52.207031 99.632812 51.910156 97.058594 51.46875 97.058594 C 51.03125 97.058594 50.734375 95.074219 50.734375 92.648438 L 50.734375 88.234375 L 195.589844 88.234375 L 195.589844 92.648438 C 195.589844 96.101562 195.367188 97.058594 194.484375 97.058594 C 193.53125 97.058594 193.382812 101.984375 193.382812 136.765625 L 193.382812 176.46875 L 184.558594 176.46875 L 184.558594 185.292969 L 175.734375 185.292969 L 175.734375 194.117188 L 166.910156 194.117188 L 166.910156 202.941406 L 217.648438 202.941406 L 217.648438 211.765625 L 200 211.765625 L 200 220.589844 L 43.382812 220.589844 Z M 52.207031 141.175781 L 52.207031 119.117188 L 26.46875 119.117188 L 26.46875 163.234375 L 52.207031 163.234375 Z M 52.207031 141.175781 "/>
<path style=" stroke:none;fill-rule:nonzero;fill:rgb(86.666667%,21.568628%,27.058825%);fill-opacity:1;" d="M 96.324219 207.351562 L 96.324219 202.941406 L 217.648438 202.941406 L 217.648438 211.765625 L 96.324219 211.765625 Z M 96.324219 207.351562 "/>
<path style=" stroke:none;fill-rule:nonzero;fill:rgb(86.666667%,21.568628%,27.058825%);fill-opacity:1;" d="M 113.96875 189.707031 L 113.96875 185.292969 L 105.148438 185.292969 L 105.148438 176.46875 L 96.324219 176.46875 L 96.324219 97.058594 L 50.734375 97.058594 L 50.734375 88.234375 L 195.589844 88.234375 L 195.589844 92.648438 C 195.589844 96.101562 195.367188 97.058594 194.484375 97.058594 C 193.53125 97.058594 193.382812 101.984375 193.382812 136.765625 L 193.382812 176.46875 L 184.558594 176.46875 L 184.558594 185.292969 L 175.734375 185.292969 L 175.734375 194.117188 L 113.96875 194.117188 Z M 113.96875 189.707031 "/>
<path style=" stroke:none;fill-rule:nonzero;fill:rgb(52.156866%,29.803923%,74.901962%);fill-opacity:1;" d="M 185.292969 207.351562 L 185.292969 202.941406 L 194.117188 202.941406 L 194.117188 211.765625 L 185.292969 211.765625 Z M 185.292969 207.351562 "/>
<path style=" stroke:none;fill-rule:nonzero;fill:rgb(52.156866%,29.803923%,74.901962%);fill-opacity:1;" d="M 138.96875 172.058594 L 138.96875 158.824219 L 147.792969 158.824219 L 147.792969 97.058594 L 50.734375 97.058594 L 50.734375 88.234375 L 195.589844 88.234375 L 195.589844 97.058594 L 156.617188 97.058594 L 156.617188 158.824219 L 165.441406 158.824219 L 165.441406 185.292969 L 138.96875 185.292969 Z M 138.96875 172.058594 "/>
<path style=" stroke:none;fill-rule:nonzero;fill:rgb(52.156866%,29.803923%,74.901962%);fill-opacity:1;" d="M 174.265625 134.925781 L 174.265625 116.910156 L 183.089844 116.910156 L 183.089844 152.941406 L 174.265625 152.941406 Z M 174.265625 134.925781 "/>
<path style=" stroke:none;fill-rule:nonzero;fill:rgb(100%,66.666669%,43.137255%);fill-opacity:1;" d="M 185.292969 207.351562 L 185.292969 202.941406 L 194.117188 202.941406 L 194.117188 211.765625 L 185.292969 211.765625 Z M 185.292969 207.351562 "/>
<path style=" stroke:none;fill-rule:nonzero;fill:rgb(100%,66.666669%,43.137255%);fill-opacity:1;" d="M 174.265625 134.925781 L 174.265625 116.910156 L 183.089844 116.910156 L 183.089844 152.941406 L 174.265625 152.941406 Z M 174.265625 134.925781 "/>
<path style=" stroke:none;fill-rule:nonzero;fill:rgb(100%,66.666669%,43.137255%);fill-opacity:1;" d="M 147.792969 123.53125 L 147.792969 97.058594 L 50.734375 97.058594 L 50.734375 88.234375 L 195.589844 88.234375 L 195.589844 97.058594 L 156.617188 97.058594 L 156.617188 150 L 147.792969 150 Z M 147.792969 123.53125 "/>
<path style=" stroke:none;fill-rule:nonzero;fill:rgb(100%,87.843138%,56.862748%);fill-opacity:1;" d="M 185.292969 207.351562 L 185.292969 202.941406 L 194.117188 202.941406 L 194.117188 211.765625 L 185.292969 211.765625 Z M 185.292969 207.351562 "/>
<path style=" stroke:none;fill-rule:nonzero;fill:rgb(100%,87.843138%,56.862748%);fill-opacity:1;" d="M 174.265625 134.925781 L 174.265625 116.910156 L 183.089844 116.910156 L 183.089844 152.941406 L 174.265625 152.941406 Z M 174.265625 134.925781 "/>
<path style=" stroke:none;fill-rule:nonzero;fill:rgb(100%,87.843138%,56.862748%);fill-opacity:1;" d="M 50.734375 92.648438 L 50.734375 88.234375 L 147.792969 88.234375 L 147.792969 97.058594 L 50.734375 97.058594 Z M 50.734375 92.648438 "/>
<path style=" stroke:none;fill-rule:nonzero;fill:rgb(100%,87.843138%,56.862748%);fill-opacity:1;" d="M 156.617188 92.648438 L 156.617188 88.234375 L 195.589844 88.234375 L 195.589844 97.058594 L 156.617188 97.058594 Z M 156.617188 92.648438 "/>
<path style=" stroke:none;fill-rule:nonzero;fill:rgb(80.000001%,88.627452%,88.235295%);fill-opacity:1;" d="M 50.734375 92.648438 L 50.734375 88.234375 L 147.792969 88.234375 L 147.792969 97.058594 L 50.734375 97.058594 Z M 50.734375 92.648438 "/>
<path style=" stroke:none;fill-rule:nonzero;fill:rgb(80.000001%,88.627452%,88.235295%);fill-opacity:1;" d="M 156.617188 92.648438 L 156.617188 88.234375 L 195.589844 88.234375 L 195.589844 97.058594 L 156.617188 97.058594 Z M 156.617188 92.648438 "/>
</g>
</svg>
